X:0798
T:Miss Flemyng of Moness's Strathspey.
M:C
L:1/8
Q:1/4=120
I: :: :|
Z:Jack Campin * www.campin.me.uk * 2009
K:G
g|d>Gd>B GABg|dG  e/d/c/B/ cAAg   |d>Gd>B G>ABg|b/a/g/f/ ge dBB:|
b|g<dB<b gdBb|g>d e/d/c/B/ cAAb   |g>dBg  dgBg |e<Bg>e      dBBb|
  g<dB<b gdBb|g>d e/d/c/B/ cAAB/c/|dGeB   gBaB |b/a/g/f/ ge dBB|]
<end>
<start>
